src/ornaments/ornament.svg

<?xml version="1.0" encoding="UTF-8"?>
<svg width="2221px" height="2854px" viewBox="0 0 2221 2854" version="1.1" xmlns="http://www.w3.org/2000/svg" xmlns:xlink="http://www.w3.org/1999/xlink">
    <title>ha</title>
    <defs>
        <linearGradient x1="50%" y1="0%" x2="50%" y2="100%" id="linearGradient-1">
            <stop stop-color="#6100DE" offset="0%"></stop>
            <stop stop-color="#9C53F8" offset="100%"></stop>
        </linearGradient>
    </defs>
    <g id="Page-1" stroke="none" stroke-width="1" fill="none" fill-rule="evenodd" opacity="0.803830854">
        <path d="M1677.357,2853.128 C1658.82337,2853.128 1640.30153,2852.19321 1621.862,2850.328 C1603.77186,2848.48851 1585.78529,2845.7434 1567.97,2842.103 C1550.481,2838.524 1532.981,2834.024 1515.954,2828.728 C1499.117,2823.491 1482.339,2817.351 1466.087,2810.477 C1449.987,2803.668 1434.026,2795.977 1418.642,2787.621 C1403.371,2779.321 1388.314,2770.178 1373.89,2760.434 C1359.537,2750.734 1345.479,2740.225 1332.106,2729.189 C1318.765,2718.179 1305.797,2706.389 1293.562,2694.158 C1281.327,2681.927 1269.538,2668.952 1258.531,2655.614 C1247.495,2642.241 1236.982,2628.183 1227.286,2613.83 C1217.542,2599.406 1208.395,2584.35 1200.099,2569.078 C1191.742,2553.694 1184.052,2537.731 1177.243,2521.632 C1170.369,2505.381 1164.229,2488.603 1158.992,2471.765 C1153.692,2454.739 1149.192,2437.238 1145.617,2419.749 C1141.9766,2401.93371 1139.23149,2383.94714 1137.392,2365.857 C1135.52682,2347.41746 1134.5923,2328.89563 1134.592,2310.362 L1134.592,2310.109 L1135.058,2310.109 C1155.61878,2310.11374 1176.12771,2308.04663 1196.274,2303.939 C1235.13137,2295.98148 1272.04234,2280.45297 1304.902,2258.239 C1353.74799,2225.2822 1391.98753,2178.8664 1414.987,2124.616 C1422.75738,2106.24365 1428.68868,2087.14674 1432.694,2067.605 C1436.80448,2047.46076 1438.87294,2026.95334 1438.868,2006.394 L1438.868,1822.659 C1252.58002,1913.59235 1134.46691,2102.80795 1134.592,2310.105 C1114.05498,2310.07899 1093.57273,2307.98577 1073.455,2303.857 C1034.64755,2295.85897 997.791654,2280.3076 964.985,2258.088 C916.214878,2225.11834 878.042455,2178.72374 855.085,2124.516 C847.328497,2106.15691 841.407977,2087.07525 837.41,2067.55 C833.307494,2047.42298 831.247991,2026.93387 831.247991,2006.393 L831.247991,1095.047 C831.247991,1074.48602 833.311688,1053.97695 837.422,1033.831 C845.383216,994.970487 860.918741,958.057985 883.142,925.2 C916.120154,876.354076 962.552343,838.116661 1016.816,815.118 C1035.19273,807.348531 1054.29356,801.417603 1073.839,797.412 C1114.23523,789.180105 1155.87677,789.180105 1196.273,797.412 C1235.13254,805.375597 1272.04366,820.913149 1304.9,843.138 C1353.74673,876.115183 1391.9852,922.546686 1414.985,976.81 C1422.75502,995.186275 1428.68629,1014.2868 1432.692,1033.832 C1436.80231,1053.97795 1438.87077,1074.48702 1438.866,1095.048 L1438.866,1822.66 C1493.93332,1795.67771 1553.2001,1778.28726 1614.116,1771.237 C1653.54866,1766.67799 1693.35865,1766.39569 1732.852,1770.395 C1750.94215,1772.23445 1768.92872,1774.97956 1786.744,1778.62 C1804.232,1782.198 1821.733,1786.698 1838.76,1791.995 C1855.599,1797.232 1872.376,1803.373 1888.627,1810.246 C1904.727,1817.056 1920.69,1824.746 1936.073,1833.102 C1951.345,1841.402 1966.401,1850.545 1980.824,1860.289 C1995.176,1869.989 2009.235,1880.498 2022.608,1891.534 C2035.95,1902.545 2048.918,1914.334 2061.152,1926.565 C2073.386,1938.796 2085.172,1951.765 2096.183,1965.109 C2107.22,1978.483 2117.732,1992.541 2127.428,2006.893 C2137.172,2021.316 2146.319,2036.372 2154.615,2051.644 C2162.971,2067.025 2170.661,2082.988 2177.471,2099.089 C2184.345,2115.341 2190.486,2132.119 2195.722,2148.956 C2201.022,2165.982 2205.522,2183.483 2209.097,2200.972 C2212.73742,2218.78728 2215.48253,2236.77385 2217.322,2254.864 C2221.05837,2291.76633 2221.05837,2328.95167 2217.322,2365.854 C2215.48251,2383.94414 2212.7374,2401.93071 2209.097,2419.746 C2205.518,2437.235 2201.019,2454.735 2195.722,2471.762 C2190.485,2488.601 2184.344,2505.378 2177.471,2521.629 C2170.661,2537.729 2162.971,2553.693 2154.615,2569.075 C2146.315,2584.346 2137.172,2599.403 2127.428,2613.827 C2117.728,2628.18 2107.219,2642.238 2096.183,2655.611 C2085.174,2668.951 2073.383,2681.919 2061.152,2694.155 C2048.921,2706.391 2035.952,2718.175 2022.608,2729.186 C2009.235,2740.223 1995.176,2750.735 1980.824,2760.431 C1966.401,2770.175 1951.344,2779.322 1936.073,2787.618 C1920.69,2795.974 1904.727,2803.664 1888.627,2810.474 C1872.376,2817.348 1855.598,2823.488 1838.76,2828.725 C1821.733,2834.025 1804.232,2838.525 1786.744,2842.1 C1768.92873,2845.7405 1750.94216,2848.48561 1732.852,2850.325 C1714.41251,2852.19118 1695.89068,2853.128 1677.357,2853.128 L1677.357,2853.128 Z M303.711,2430.10502 C283.151207,2430.10502 262.643256,2428.04277 242.498,2423.935 C203.649003,2415.97845 166.747017,2400.44971 133.898,2378.235 C85.06953,2345.27559 46.8480108,2298.86219 23.865,2244.619 C16.0980824,2226.246 10.1691691,2207.14921 6.165,2187.608 C2.05924006,2167.46421 -0.00619378517,2146.95795 -2.77154993e-05,2126.4 L-2.77154993e-05,303.711 C-2.77154993e-05,283.151867 2.06221251,262.644578 6.17,242.5 C14.1267026,203.651049 29.6554269,166.749092 51.87,133.9 C84.8299587,85.0714001 131.243617,46.8496131 185.487,23.866 C203.860722,16.1001453 222.958208,10.1725656 242.5,6.17 C282.90483,-2.05672076 324.55317,-2.05672076 364.958,6.17 C403.820492,14.1239054 440.736604,29.6519008 473.6,51.868 C522.437845,84.8258003 560.666874,131.242671 583.653,185.492 C591.42028,203.864522 597.349205,222.961022 601.353,242.502 C605.460828,262.646235 607.523009,283.153196 607.523009,303.712 L607.523009,2126.4 C607.523009,2146.95946 605.460794,2167.46708 601.353,2187.612 C593.397526,2226.46133 577.868704,2263.36352 555.653,2296.212 C522.679338,2345.04441 476.24958,2383.2645 421.991,2406.24 C403.609787,2414.00707 384.505017,2419.93596 364.956,2423.94 C344.799788,2428.0462 324.281216,2430.10502 303.711,2430.10502 Z" id="ha" fill="url(#linearGradient-1)" fill-rule="nonzero"></path>
    </g>
</svg>

<svg width="2221" height="2854" xmlns="http://www.w3.org/2000/svg"><defs><linearGradient x1="50%" y1="0%" x2="50%" y2="100%" id="a"><stop stop-color="#6100DE" offset="0%"/><stop stop-color="#9C53F8" offset="100%"/></linearGradient></defs><path d="M1677.357 2853.128c-18.534 0-37.055-.935-55.495-2.8a544.137 544.137 0 01-53.892-8.225 541.132 541.132 0 01-52.016-13.375 541.037 541.037 0 01-49.867-18.251 542.707 542.707 0 01-47.445-22.856 546.325 546.325 0 01-44.752-27.187 547.976 547.976 0 01-41.784-31.245 549.202 549.202 0 01-38.544-35.031 547.26 547.26 0 01-35.031-38.544 546.92 546.92 0 01-31.245-41.784 545.044 545.044 0 01-27.187-44.752 542.577 542.577 0 01-22.856-47.446 538.712 538.712 0 01-31.626-101.883 544.137 544.137 0 01-8.225-53.892 551.523 551.523 0 01-2.8-55.495v-.253h.466c20.56.005 41.07-2.062 61.216-6.17a302.221 302.221 0 00108.628-45.7 304.631 304.631 0 00110.085-133.623 302.055 302.055 0 0017.707-57.011 305.79 305.79 0 006.174-61.211v-183.735c-186.288 90.933-304.401 280.149-304.276 487.446a306.031 306.031 0 01-61.137-6.248 302.211 302.211 0 01-108.47-45.769 304.626 304.626 0 01-109.9-133.572 302.074 302.074 0 01-17.675-56.966 306.202 306.202 0 01-6.162-61.157v-911.346c0-20.561 2.064-41.07 6.174-61.216a302.14 302.14 0 0145.72-108.631 304.8 304.8 0 01133.674-110.082 302.27 302.27 0 0157.023-17.706 306.583 306.583 0 01122.434 0 302.142 302.142 0 01108.627 45.726 304.8 304.8 0 01110.085 133.672 302.226 302.226 0 0117.707 57.022 305.866 305.866 0 016.174 61.216v727.612a539.171 539.171 0 01175.25-51.423 550.723 550.723 0 01118.736-.842 544.112 544.112 0 0153.892 8.225 540.62 540.62 0 0152.016 13.375 541.009 541.009 0 0149.867 18.251c16.1 6.81 32.063 14.5 47.446 22.856a545.97 545.97 0 0144.751 27.187 548.174 548.174 0 0141.784 31.245 549 549 0 0138.544 35.031 547.15 547.15 0 0135.031 38.544 547.05 547.05 0 0131.245 41.784 544.858 544.858 0 0127.187 44.751 542.441 542.441 0 0122.856 47.445 538.712 538.712 0 0131.626 101.883 544.124 544.124 0 018.225 53.892 550.9 550.9 0 010 110.99 544.137 544.137 0 01-8.225 53.892 540.838 540.838 0 01-13.375 52.016 541.009 541.009 0 01-18.251 49.867 542.736 542.736 0 01-22.856 47.446 546.325 546.325 0 01-27.187 44.752 547.976 547.976 0 01-31.245 41.784 549.404 549.404 0 01-35.031 38.544 546.66 546.66 0 01-38.544 35.031 546.853 546.853 0 01-41.784 31.245 545.027 545.027 0 01-44.751 27.187 542.874 542.874 0 01-47.446 22.856 540.824 540.824 0 01-49.867 18.251 538.862 538.862 0 01-52.016 13.375 544.076 544.076 0 01-53.892 8.225 551.142 551.142 0 01-55.495 2.803zM303.711 2430.105c-20.56 0-41.068-2.062-61.213-6.17a302.043 302.043 0 01-108.6-45.7 304.56 304.56 0 01-110.033-133.616 302.229 302.229 0 01-17.7-57.011A306.015 306.015 0 010 2126.4V303.711A306.35 306.35 0 016.17 242.5a302.049 302.049 0 0145.7-108.6A304.57 304.57 0 01185.487 23.866 302.2 302.2 0 01242.5 6.17a306.891 306.891 0 01122.458 0A302.171 302.171 0 01473.6 51.868a304.54 304.54 0 01110.053 133.624 302.16 302.16 0 0117.7 57.01 306.337 306.337 0 016.17 61.21V2126.4a306.36 306.36 0 01-6.17 61.212 302 302 0 01-45.7 108.6 304.588 304.588 0 01-133.662 110.028 302.45 302.45 0 01-57.035 17.7 306.802 306.802 0 01-61.245 6.165z" fill="url(#a)" fill-rule="nonzero"/></svg>
